X:1
T:Title
%%score { ( 1 3 ) | ( 2 4 ) }
L:1/8
M:4/4
K:Ab
V:1 treble nm="Grand Piano"
V:3 treble 
V:2 bass 
V:4 bass 
V:1
 z4 z2[Q:1/4=94] [CA]2 | [Ec]3 [EB] [EA][=EG][FA][DF] | [CE]6 [CE]2 | [DF]2 [DB]2 AGFG | %4
 [CA]6 [Ec]2 | [EB]3 [EB] [=DB][D_c][D=c][F=d] | [Ge]4 [EG]2 [Ec]2 | %7
 [=Dc]2 D-[DG] [CDB][CDA][B,DG][A,DF] |[M:5/8] E-E- E3 |[M:3/8] EAB |[M:4/4] c6 z2 | E6 z2 | %12
 [Fd]3 [Fc] [FB]2 [FA]2 | A4 GEAB | c6 z2 | [Fd]6 z2 | E4 z4 |[M:3/4] [CA]6 |] %18
V:2
 z4 z2 [A,,A,]2 | [A,,A,]3 [B,,G,] [C,A,][C,A,][D,A,][D,A,] | [A,,A,]6 [A,,A,]2 | %3
 [D,A,]2 [B,,B,]2 [E,B,D][E,B,D][E,B,D][E,B,D] | [A,,A,]6 [A,,A,]2 | %5
 [E,G,]3 [E,G,] [B,,F,][B,,F,][B,,A,][B,,B,] | [E,B,]6 [E,G,]2 | [B,,A,]2 z B, B,,B,,B,,B,, | %8
[M:5/8] z2 A,2 G, |[M:3/8] DCD |[M:4/4] E6 z2 | C6 z2 | [B,,B,]3 [C,=A,] [D,B,]2 [D,B,]2 | C4 z4 | %14
 E6 z2 | [D,A,]D,D,D, D,[K:treble]FED | C4[K:bass] z4 |[M:3/4] [A,,A,]6 |] %18
V:3
 x8 | x8 | x8 | x8 | x8 | x8 | x8 | z2 .[A,F]2 z4 |[M:5/8] G,2 C2 B, |[M:3/8] x3 | %10
[M:4/4] z A,A,A, A,ABA | z A,A,A, A,2 A2 | x8 | x8 | z A,A,A, A,ABc | z A,A,A, A,AGF | %16
 z A,A,A, E2 B2 |[M:3/4] x6 |] %18
V:4
 x8 | x8 | x8 | x8 | x8 | x8 | x8 | z2 B,,2 z4 |[M:5/8] E,-E,- E,3 |[M:3/8] x3 | %10
[M:4/4] z A,,C,E, z CDC | z A,,C,E, z2 [F,A,C]2 | x8 | [E,E]4- [E,B,E]DCD | %14
 z A,,C,E, z [A,CE][G,B,E][A,E] | x5[K:treble] x3 | z[K:bass] E,E,E, [E,G,B,]2 [E,G,D]2 | %17
[M:3/4] x6 |] %18

